X:1
T: Long Live London
N:
C:Pat Shaw
S:
A:
O:
R:
M:4/4
K:G
I:speed 200
%W: A1
% voice 1 (1 lines, 27 notes)
K:G
M:4/4
L:1/16
d4 |g6 d2 B4 d4 |e4 g8 e4 |d6 B2 G4 B4 |A12 d4 |g6 d2 B4 d4 |e4 g8 e4 |d4 B4 A6 B2 |G12 d4 |
%W: A2
% voice 1 (1 lines, 26 notes)
g6 d2 B4 d4 |e4 g8 e4 |d6 B2 G4 B4 |A12 d4 |g6 d2 B4 d4 |e4 g8 e4 |d4 B4 A6 B2 |G12 G4 |
%W: B1
% voice 1 (1 lines, 30 notes)
E6 D2 E4 G4 |D6 B,2 D4 G4 |A6 G2 A4 B4 |G12 B4 |A6 F2 A4 d4 |B6 G2 B4 d4 |^c4 d4 e4 f4 |g4 f4 e4 ^c4 |
%W: B2
% voice 1 (1 lines, 31 notes)
d6 e2 d4 c4 |B4 d4 G4 A2 B2 |c6 B2 A4 G4 |F4 A4 D4 e2 f2 |g6 d2 B4 d4 |e6 c2 A4 c4 |B4 d8 c2 A2 |G12 ||
